X:157
T:The Boys of Blue Hill
M:4/4
L:1/16
K:D
d3B | "D"B3A F3A D3A F3A | "G"B3A (3B2c2d2 "A7"e4 d3e | "D"f3a a3f "A7"e3g f3e | "D"d3f e3d "G"B4 d3B | 
"D"B3A F3A D3A F3A | "G"B3A (3B2c2d2 "A7"e4 d3e | "D"f3a a3f "A7"e3g f3e | "D"d4 f4 d4 :|
|: f3g | "D"a3f d3f a4 g3f | "Em"e3f g3a "Bm"b4 a3g | "D"f3a a3f "A7"e3g f3e | "D"d3f e3d "G"B4 d3B | 
"D"B3A F3A D3A F3A | "G"B3A (3B2c2d2 "A7"e4 d3e | "D"f3a a3f "A7"e3g f3e | "D"d4 f4 d4 :|

%%newpage
%%scale 0.76

